**kern	**text
*clefG2	*
*k[f#c#g#d#a#]	*
*M4/4	*
*MM200	*
=1	=1
4r	.
8r	.
8b	- て
8bL	e ら
8cc#J	a し
8.dd#L	i だ
16dd#Jk	a し
=2	=2
4b	i て
8r	.
8b	- ぐ
8bL	u り
8cc#	i い
8cc#	i ん
8dd#J	n ら
=3	=3
8.cc#L	a い
16cc#'Jk	i つ
8r	.
8f#	- ひ
4g#	i ろ
4a#	o が
=4	=4
4b	a る
4a#	u み
4b	i ら
4cc#	a い
=5	=5
2b	i お
8r	.
8g#	- き
4a#	i い
=6	=6
4b	i と
4r	.
8r	.
8b	- い
4cc#	i つ
=7	=7
4b	u か
4r	.
8r	.
8b	- き
4cc#	i み
=8	=8
4dd#	i お
4dd#	o て
8dd#L	e ら
8ee	a す
8dd#	u ま
[8cc#J	a で
=9	=9
1cc#]	.
=10	=10
1r	.
=11	=11
1r	.
=12	=12
1r	.
=13	=13
1r	.
=14	=14
1r	.
=15	=15
1r	.
=16	=16
1r	.
=17	=17
1r	.
=18	=18
1r	.
=19	=19
1r	.
=20	=20
1r	.
=21	=21
2r	.
4r	.
8eL	- あ
8f#J	a ら
=22	=22
4g#	a た
4g#	a め
4f#	e て
4e	e ゆ
=23	=23
4f#	u う
4g#	u こ
4an	o と
8g#L	o で
[8eJ	e も
=24	=24
8e]	.
8r	.
4r	.
4d#	- な
4e	a い
=25	=25
4.f#	i け
[8e	e ど
4e]	.
4r	.
=26	=26
4e	- い
4e	i ま
4d#	a だ
4e	a か
=27	=27
4f#	a ら
4f#	a こ
4e	o そ
4f#	o い
=28	=28
2g#	i わ
4r	.
4e	- せ
=29	=29
2f#	e て
4r	.
8r	.
8f#	- あ
=30	=30
4g#	a の
4g#	o ひ
4f#	i き
4e	i み
=31	=31
4f#	i が
4g#	a み
4an	i つ
8g#L	u け
[8eJ	e て
=32	=32
8e]	.
8r	.
4r	.
4d#	- く
4e	u れ
=33	=33
8f#	e る
4e	u こ
[8e	o と
8e]	.
8r	.
8r	.
8d#	- な
=34	=34
4e	a ん
4d#	n と
4e	o な
4f#	a く
=35	=35
4f#	u よ
8g#L	o か
[8f#J	a ん
4f#]	.
4e	n し
=36	=36
4.e	i て
[8e	e た
4e]	.
4f#	a ん
=37	=37
4e	n だ
8r	.
8b	- は
8bL	a し
8cc#J	i り
8.dd#L	i だ
16dd#Jk	a し
=38	=38
4b	i た
8r	.
8b	- き
8bL	i み
8cc#J	i に2
4dd#	i も
=39	=39
4cc#	- と
8r	.
8f#	- ち
8g#L	i か
8g#J	a ら
4a#	a お
=40	=40
4b	o あ
4a#	a げ
4b	e た
4cc#	a く
=41	=41
2b	u て
8r	.
8g#	- ず
4a#	u う
=42	=42
4b	u と
4r	.
8r	.
8b	- ま
4cc#	a え
=43	=43
4b	e に2
4r	.
8r	.
8b	- こ
4cc#	o こ
=44	=44
4dd#	o ろ
4dd#	o き
8dd#L	i め
8ee	e た
8dd#	a ん
[8cc#J	n だ
=45	=45
4cc#]	.
8r	.
8b	- て
8bL	e ら
8cc#J	a し
8.dd#L	i だ
16dd#Jk	a し
=46	=46
4b	i て
8r	.
8b	- ぐ
8bL	u り
8cc#	i い
8cc#	i ん
8dd#J	n ら
=47	=47
8.cc#L	a い
16cc#'Jk	i つ
8r	.
8f#	- は
4g#	a る
4a#	u か
=48	=48
4b	a な
4ee	a み
4dd#	i ら
4cc#	a い
=49	=49
2b	i お
8r	.
8g#	- き
4a#	i い
=50	=50
4b	i と
4r	.
8r	.
8b	- い
4cc#	i つ
=51	=51
4b	u か
4r	.
8r	.
8b	- き
4cc#	i み
=52	=52
4dd#	i お
4dd#	o て
8dd#L	e ら
8ee	a す
8dd#	u ま
[8ff#J	a で
=53	=53
2.ff#]	.
4r	.
=54	=54
4dd#	- い
4ee	i ま
8eeL	a ま
8dd#	a で
8cc#	e も
8bJ	o い
=55	=55
4cc#	i つ
4b	u ま
4b	a で
4cc#	e も
=56	=56
4dd#	o と
4ee	o な
8eeL	a り
8dd#	i に2
8cc#	i い
8bJ	i た
=57	=57
4.cc#	a い
8dd#	i の
4dd#	o わ
4r	.
=58	=58
4dd#	- か
4ee	a が
8eeL	a や
8dd#	a い
8cc#	i た
8bJ	a き
=59	=59
4cc#	i み
4b	i の
4b	o か
8cc#L	a お
8cc#J	o ま
=60	=60
4dd#	a じ
8eeL	i か
8eeJ	a で
8eeL	e み
8dd#	i た
8cc#	a い
8bJ	i か
=61	=61
1b	a ら
=62	=62
1r	.
=63	=63
1r	.
=64	=64
1r	.
=65	=65
1r	.
=66	=66
1r	.
=67	=67
1r	.
=68	=68
1r	.
=69	=69
2r	.
4r	.
8eL	- こ
8f#J	o と
=70	=70
4g#	o ば
4g#	a わ
4f#	a と
4e	o き
=71	=71
4f#	i に2
4g#	i む
4an	u りょ
8g#L	o く
[8eJ	u で
=72	=72
8e]	.
8r	.
4r	.
4d#	- な
4e	a か
=73	=73
4.f#	a な
[8e	a か
4e]	.
8r	.
8d#	- こ
=74	=74
4e	o の
4e	o せ
4d#	e か
4e	a い
=75	=75
4f#	i わ
4f#	a か
4e	a わ
4f#	a ら
=76	=76
4.g#	a な
[8e	a い
4e]	.
4e	i け
=77	=77
2f#	e ど
2r	.
=78	=78
4g#	- も
4g#	o し
4f#	i き
4e	i み
=79	=79
4f#	i が
4g#	a も
4an'	o お
8g#L	- て
[8eJ	e る
=80	=80
8e]	.
8r	.
4e	- そ
4d#	o の
4e	o ま
=81	=81
4f#	a ほ
8eL	o お
[8eJ	o で
8e]	.
8r	.
8r	.
8d#	- あ
=82	=82
4e	a た
4e	a ら
4d#	a し
4e	i い
=83	=83
4f#	i せ
8g#L	e か
[8f#J	a い
4f#]	.
4e	i お
=84	=84
4e	o つ
8eL	u く
[8eJ	u れ
4e]	.
4f#	e る
=85	=85
4e	u と
4r	.
8r	.
8d#	- し
4d#	i た
=86	=86
4e	a ら
4r	.
2r	.
=87	=87
2r	.
4e	- な
8eL	a ん
8f#J	n て
=88	=88
4e	e ね
4r	.
2r	.
=89	=89
4r	.
4e'	- い
8f#L	- て
8f#	e み
8e	i た
8d#J	a だ
=90	=90
4e	a け
4r	.
2r	.
=91	=91
2r	.
4e	- そ
8eL	o ん
8f#J	n な
=92	=92
4e	a の
4r	.
2r	.
=93	=93
4r	.
8r	.
8e	- ほ
8eL	o ん
8e	n と
8f#	o お
8eJ	o わ
=94	=94
4e	a で
4d#	e き
4e	i る
4f#	u わ
=95	=95
4f#	a け
8g#L	e な
[8f#J	a い
16f#]	.
16r	.
8r	.
4cc#	- わ
=96	=96
4b	a け
8anL	e が
[8aJ	a な
8aL]	.
8g#J	a い
4f#	i で
=97	=97
4e	e しょ
8r	.
8b	- す
8bL	u き
8cc#J	i お
4dd#'	o も
=98	=98
4b	- と
8r	.
8b	- し
8bL	i ん
8cc#	n じ
8dd#	i る
8dd#J	u の
=99	=99
4cc#	o さ
8r	.
8f#	- な
4g#	a ん
4a#	n ど
=100	=100
4b	o こ
4a#	o ろ
4b	o ん
4cc#	n で
=101	=101
2b	e も
8r	.
8g#	- き
4a#	i み
=102	=102
4b	i わ
4r	.
8r	.
8b	- き
4cc#	i み
=103	=103
4b	i の
4r	.
8r	.
8bL	- や
8cc#	a り
8cc#J	i か
=104	=104
4dd#	a た
4dd#	a で
8dd#L	e い
8ee	i い
8dd#	i の
[8cc#J	o だ
=105	=105
4cc#]	.
8r	.
8b	- て
8bL	e ら
8cc#J	a し
8.dd#L	i だ
16dd#Jk	a し
=106	=106
4b	i て
8r	.
8b	- ぐ
8bL	u り
8cc#	i い
8cc#	i ん
8dd#J	n ら
=107	=107
8.cc#L	a い
16cc#'Jk	i つ
8r	.
8f#	- た
8g#L	a ち
8g#J	i む
4a#	u か
=108	=108
4b	a う
4ee	u み
4dd#	i ら
4cc#	a い
=109	=109
2b	i お
8r	.
8g#	- き
4a#	i い
=110	=110
4b	i と
4r	.
8r	.
8b	- い
4cc#	i つ
=111	=111
4b	u か
4r	.
8r	.
8b	- き
4cc#	i み
=112	=112
4dd#	i お
4dd#	o て
8dd#L	e ら
8ee	a す
8dd#	u ま
[8ff#J	a で
=113	=113
2.ff#]	.
8r	.
8dd#	- こ
=114	=114
4dd#	o ら
4ee	a え
8eeL	e き
8dd#	i れ
8cc#	e な
8bJ	a い
=115	=115
4cc#	i よ
4b	o る
4b	u に
8cc#L	i わ
8cc#J	a と
=116	=116
4dd#	o な
4ee	a り
8eeL	i で
8dd#	e な
8cc#	a い
8bJ	i て
=117	=117
4.cc#	e い
8ff#	i い
4dd#	i よ
4r	.
=118	=118
4dd#	- ふ
4ee	u た
8eeL	a り
8dd#	i だ
8cc#	a け
8bJ	e の
=119	=119
4cc#	o ひ
4b	i み
4b	i つ
4cc#	u も
=120	=120
4dd#	o う
4ee	u れ
8eeL	e し
8dd#	i い
8cc#	i ん
8bJ	n だ
=121	=121
1b	a よ
=122	=122
1r	.
=123	=123
1r	.
=124	=124
1r	.
=125	=125
1r	.
=126	=126
1r	.
=127	=127
1r	.
=128	=128
1r	.
=129	=129
1r	.
=130	=130
1r	.
=131	=131
1r	.
=132	=132
1r	.
=133	=133
1r	.
=134	=134
1r	.
=135	=135
1r	.
=136	=136
1r	.
=137	=137
4r	.
8r	.
8b	- は
8bL	a し
8cc#J	i り
8.dd#L	i だ
16dd#Jk	a し
=138	=138
4b	i た
8r	.
8b	- き
8bL	i み
8cc#J	i に2
4dd#	i も
=139	=139
4cc#	- と
8r	.
8f#	- ち
8g#L	i か
8g#J	a ら
4a#	a お
=140	=140
4b	o あ
4a#	a げ
4b	e た
4cc#	a く
=141	=141
2b	u て
8r	.
8g#	- ず
4a#	u う
=142	=142
4b	u と
4r	.
8r	.
8b	- ま
4cc#	a え
=143	=143
4b	e に2
4r	.
8r	.
8b	- こ
4cc#	o こ
=144	=144
4dd#	o ろ
4dd#	o き
8dd#L	i め
8ee	e た
8dd#	a ん
[8cc#J	n だ
=145	=145
4cc#]	.
8r	.
8b	- て
8bL	e ら
8cc#J	a し
8.dd#L	i だ
16dd#Jk	a し
=146	=146
4b	i て
8r	.
8b	- ぐ
8bL	u り
8cc#	i い
8cc#	i ん
8dd#J	n ら
=147	=147
8.cc#L	a い
16cc#'Jk	i つ
8r	.
8f#	- は
4g#	a る
4a#	u か
=148	=148
4b	a な
4ee	a み
4dd#	i ら
4cc#	a い
=149	=149
2b	i お
8r	.
8g#	- き
4a#	i い
=150	=150
4b	i と
4r	.
8r	.
8b	- い
4cc#	i つ
=151	=151
4b	u か
4r	.
8r	.
8b	- き
4cc#	i み
=152	=152
4dd#	i お
4dd#	o て
8dd#L	e ら
8ee	a す
8dd#	u ま
[8ff#J	a で
=153	=153
2.ff#]	.
4r	.
=154	=154
4dd#	- ふ
4ee	u り
8eeL	i か
8dd#	a え
8cc#	e る
8bJ	u と
=155	=155
4cc#	o と
4b	o お
4b	o く
4cc#	u て
=156	=156
4dd#	e お
4ee'	o ふ
8eeL	- て
8dd#	e く
8cc#	u れ
8bJ	e る
=157	=157
4.cc#	u き
8dd#	i み
4dd#	i も
4r	.
=158	=158
4dd#	- こ
4ee	o の
8eeL	o さ
8dd#J	a き
4b	i の
=159	=159
4cc#	o ど
4b	o こ
4b	o か
4cc#	a で
=160	=160
4dd#	- で
4ee	e あ
8eeL	a え
8dd#	e る
8b	u き
8cc#J	i み
=161	=161
2b	i も
2r	.
=162	=162
4dd#	- だ
4ee	a れ
8eeL	e に2
8dd#	i も
8cc#	o ま
8bJ	a ね
=163	=163
4cc#	e で
4b	e き
4b	i な
4cc#	a い
=164	=164
4dd#	i あ
4ee	a な
8eeL	a た
8dd#	a お
8cc#	o だ
8bJ	a き
=165	=165
4.cc#	i し
8ff#	i め
4dd#	e て
4r	.
=166	=166
4dd#	- に2
4ee	i じ
8eeL	i い
8dd#	i ろ
8cc#	o の
8bJ	o か
=167	=167
4cc#	a が
4b	a や
4b	a き
8r	.
8cc#	- ま
=168	=168
4dd#	a じ
8eeL	i か
8eeJ	a で
8eeL	e み
8dd#	i た
8cc#	a い
8bJ	i か
=169	=169
[1b	a ら
=170	=170
1b_	.
=171	=171
1b]	.
==	==
*-	*-
